X: 18882
T: In Memory Of Herbie MacLeod
R: waltz
M: 3/4
K: Amajor
E AB|"A" c4 (dc)|"E"{A}B3 (B A)B|"A7"c a3 (3(gag)|"D"f3 f ec|"A"{cd}e2 A2 B2|"F#m"c e3 (3(cec)|"Bm"B6|"E7"B3 E AB|
"A" c4 (dc)|"E"{A}B3 (B A)B|"A7"c a3 (3(gag)|"D"f3 f ec|"A"{cd}e2 A2(Bc)|"E"(Bc2)~c (BA)|"E"{FG}A6|"A"A3:|
ag|"D"f4 ed|"D"f a3 (3faf|"A" e4 (3edc|"A" ~c4 AB|"A" c4 BA|"F#m"c a3(3(cec)|"E"B6|1 B4 ag|
[1 "D"f4 ed|"D"f a3 (3faf|"A" e4 (3edc|"A" ~c4 AB|"A" ca3 c2|"F#m"(Bc3) B2|"E"A6|"A"A4:|
[2 "E"B3E AB|"A" c4 (dc)|"E"{A}B3(B A)B|"F#m"c a3(3(gag)|"D"f3~f ec|"A"{cd}e2 A2(Bc)|"E"(Bc2)~c (BA)|"A"{FG}A6|A3||

